static/images/pieces/empire/cburnett/wT.svg

<svg clip-rule="evenodd" fill-rule="evenodd" height="45" image-rendering="optimizeQuality" shape-rendering="geometricPrecision" viewBox="0 0 12.699667 12.699667" width="45" xmlns="http://www.w3.org/2000/svg"><g fill="#fd5" stroke="#000" stroke-width="1.96329" transform="matrix(.21561852 0 0 .21561852 -9.238278 1.044696)"><path d="m77.01174 6.6646411h-19.089524v36.9687769h29.541798c-2.663408-10.564319-6.500611-23.643912-10.452274-36.9687769z" fill="#ffd42a" stroke-linejoin="round"/><circle cx="85.307617" cy="41.959423" fill="#ffd42a" r="4.241071"/><g fill="#fd5"><path d="m77.01174 6.6646411v37.2341669"/><path d="m58.21581 25.298871h24.460766"/><path d="m57.922214 43.633419 19.104836-17.978815"/></g><circle cx="59.282112" cy="41.959423" fill="#ffd42a" r="4.241071"/><path d="m57.922214 6.6837255 19.104836 18.9708785" fill="#fd5"/></g></svg>

<?xml version="1.0" encoding="UTF-8" standalone="no"?>
<svg
   xmlns:dc="http://purl.org/dc/elements/1.1/"
   xmlns:cc="http://creativecommons.org/ns#"
   xmlns:rdf="http://www.w3.org/1999/02/22-rdf-syntax-ns#"
   xmlns:svg="http://www.w3.org/2000/svg"
   xmlns="http://www.w3.org/2000/svg"
   xmlns:sodipodi="http://sodipodi.sourceforge.net/DTD/sodipodi-0.dtd"
   xmlns:inkscape="http://www.inkscape.org/namespaces/inkscape"
   width="45"
   height="45"
   shape-rendering="geometricPrecision"
   image-rendering="optimizeQuality"
   fill-rule="evenodd"
   clip-rule="evenodd"
   viewBox="0 0 12.699667 12.699667"
   version="1.1"
   id="svg1722"
   sodipodi:docname="wT.svg"
   inkscape:version="1.0.1 (3bc2e813f5, 2020-09-07)">
  <metadata
     id="metadata1726">
    <rdf:RDF>
      <cc:Work
         rdf:about="">
        <dc:format>image/svg+xml</dc:format>
        <dc:type
           rdf:resource="http://purl.org/dc/dcmitype/StillImage" />
        <dc:title></dc:title>
      </cc:Work>
    </rdf:RDF>
  </metadata>
  <sodipodi:namedview
     pagecolor="#ffffff"
     bordercolor="#666666"
     borderopacity="1"
     objecttolerance="10"
     gridtolerance="10"
     guidetolerance="10"
     inkscape:pageopacity="0"
     inkscape:pageshadow="2"
     inkscape:window-width="3840"
     inkscape:window-height="2050"
     id="namedview1724"
     showgrid="false"
     inkscape:zoom="16.092197"
     inkscape:cx="67.394105"
     inkscape:cy="20.570029"
     inkscape:window-x="-12"
     inkscape:window-y="-12"
     inkscape:window-maximized="1"
     inkscape:current-layer="svg1722"
     inkscape:document-rotation="0" />
  <defs
     id="defs1716">
    <linearGradient
       id="0"
       x1="21.375999"
       x2="77.639999"
       gradientUnits="userSpaceOnUse">
      <stop
         stop-color="#fff"
         id="stop1711" />
      <stop
         offset="1"
         stop-color="#fff"
         stop-opacity="0"
         id="stop1713" />
    </linearGradient>
    <inkscape:path-effect
       effect="mirror_symmetry"
       start_point="24.963604,10.991927"
       end_point="24.963604,32.279336"
       center_point="24.963604,21.635632"
       id="path-effect940"
       is_visible="true"
       lpeversion="1"
       mode="free"
       discard_orig_path="false"
       fuse_paths="false"
       oposite_fuse="false"
       split_items="false" />
  </defs>
  <g
     id="g2346"
     transform="matrix(0.21561852,0,0,0.21561852,-9.2382782,1.0446959)"
     style="fill:#ffdd55;fill-opacity:1;stroke-width:1.96329;stroke-miterlimit:4;stroke-dasharray:none">
    <path
       style="fill:#ffd42a;fill-opacity:1;stroke:#000000;stroke-width:1.96329;stroke-linecap:butt;stroke-linejoin:round;stroke-miterlimit:4;stroke-dasharray:none;stroke-opacity:1"
       d="M 77.01174,6.6646411 H 57.922216 V 43.633418 H 87.464014 C 84.800606,33.069099 80.963403,19.989506 77.01174,6.6646411 Z"
       id="path1728"
       sodipodi:nodetypes="ccccc" />
    <circle
       style="fill:#ffd42a;fill-opacity:1;stroke:#000000;stroke-width:1.96329;stroke-miterlimit:4;stroke-dasharray:none;stroke-opacity:1"
       id="circle2293"
       cx="85.307617"
       cy="41.959423"
       r="4.2410712" />
    <path
       style="fill:#ffdd55;fill-opacity:1;stroke:#000000;stroke-width:1.96329;stroke-linecap:butt;stroke-linejoin:miter;stroke-miterlimit:4;stroke-dasharray:none;stroke-opacity:1"
       d="M 77.01174,6.6646411 V 43.898808"
       id="path2295"
       sodipodi:nodetypes="cc" />
    <path
       style="fill:#ffdd55;fill-opacity:1;stroke:#000000;stroke-width:1.96329;stroke-linecap:butt;stroke-linejoin:miter;stroke-miterlimit:4;stroke-dasharray:none;stroke-opacity:1"
       d="M 58.21581,25.298871 H 82.676576"
       id="path2297"
       sodipodi:nodetypes="cc" />
    <path
       style="fill:#ffdd55;fill-opacity:1;stroke:#000000;stroke-width:1.96329;stroke-linecap:butt;stroke-linejoin:miter;stroke-miterlimit:4;stroke-dasharray:none;stroke-opacity:1"
       d="M 57.922214,43.633419 77.02705,25.654604"
       id="path2299"
       sodipodi:nodetypes="cc" />
    <circle
       style="fill:#ffd42a;fill-opacity:1;stroke:#000000;stroke-width:1.96329;stroke-miterlimit:4;stroke-dasharray:none;stroke-opacity:1"
       id="path2291"
       cx="59.282112"
       cy="41.959423"
       r="4.2410712" />
    <path
       style="fill:#ffdd55;fill-opacity:1;stroke:#000000;stroke-width:1.96329;stroke-linecap:butt;stroke-linejoin:miter;stroke-miterlimit:4;stroke-dasharray:none;stroke-opacity:1"
       d="M 57.922214,6.6837255 77.02705,25.654604"
       id="path2303"
       sodipodi:nodetypes="cc" />
  </g>
</svg>
